X:51
T:Jigs simple chords 141
M:3/4
L:1/8
K:G
d/c/[BG,B,D] GG DG | G[BG,B,D] GB dc | B[cA,CE] AA EA | A[cD,F,A,C] Ac ed | c[BG,B,D] GG DG |
G[BG,B,D] GB dc | B[cC,E,G,] Bc Ad | c[BG,B,D] GG G2 | d/c/[BG,B,D] GG DG |
G[BG,B,D] GB dc | B[cA,CE] AA EA | A[cD,F,A,C] Ac ed | c[BG,B,D] GG DG |
G[BG,B,D] GB dc | B[cC,E,G,] Bc Ad | c[BG,B,D] GG G2 | g[gG,B,D] dg gd |
g[gG,B,D] dg ba | g[fD,F,A,C] df fd | f[fD,F,A,C] df ag | f[eC,E,G,] gg dg |
g[cDFA,C] gg Bg | B[cC,E,G,] Bc Ad | c[BG,B,D] GG G2 | g[gG,B,D] dg gd |
g[gG,B,D] dg ba | g[fD,F,A,C] df fd | f[fD,F,A,C] df ag | f[eC,E,G,] gg dg |
g[cDFA,C] gg Bg | B[cC,E,G,] Bc Ad | c[BG,B,D] GG G2 |


